src/images/svg/academy/email2.svg

<svg width="64" height="64" viewBox="0 0 64 64" fill="none" xmlns="http://www.w3.org/2000/svg">
<path fill-rule="evenodd" clip-rule="evenodd" d="M5 32C4.64893 32.0003 4.30849 32.1859 4.12589 32.5145C3.85768 32.9972 4.03162 33.606 4.51441 33.8742L21.6752 43.4073C19.9208 44.6926 17.9582 46.1382 15.8107 47.7264L15.5084 47.9501C12.1819 50.4111 8.63642 53.0477 5.10328 55.6842C3.98865 56.516 2.94703 57.2942 1.99959 58.0028L1.99999 30.4117L5 27.4291V32ZM7 32.9672L23.4536 42.1075C26.1957 40.1085 28.3062 38.5961 29.6696 37.6591C31.1081 36.7826 32.8919 36.7826 34.3768 37.6892C35.7137 38.6089 37.8114 40.113 40.5466 42.1074L57 32.9672L57.0001 25.0286L57 25.0146L57.0001 25.0003L57.0004 3.15833C56.9919 2.84173 56.8575 2.54158 56.627 2.32436C56.3965 2.10713 56.0889 1.99075 55.74 2.00151L8.22768 2.00099C7.91111 1.99075 7.60352 2.10713 7.37303 2.32436C7.14253 2.54158 7.00815 2.84173 7 3.13146V25.0144V32.9672ZM59 32C59.3511 32.0003 59.6915 32.1859 59.8741 32.5145C60.1423 32.9972 59.9684 33.606 59.4856 33.8742L42.3249 43.4073C44.0781 44.6917 46.0412 46.1378 48.1893 47.7264L48.4916 47.9501C51.8181 50.4111 55.3636 53.0477 58.8967 55.6842C60.0112 56.5159 61.0527 57.294 62 58.0025V30.4117L59 27.4291V32ZM62 60.5004L61.1099 59.8342C60.0825 59.0657 58.9364 58.2093 57.7005 57.287C54.1694 54.6519 50.6261 52.0169 47.3021 49.5577L47 49.3343C40.4452 44.4866 35.6134 40.9674 33.2896 39.3669C32.4903 38.8798 31.5097 38.8798 30.7568 39.3368C28.3866 40.9674 23.5548 44.4866 17 49.3343L16.6979 49.5577C13.3739 52.0169 9.83057 54.6519 6.29947 57.287C5.06356 58.2093 3.91747 59.0657 2.89013 59.8342L1.99955 60.5007L1.99955 60.5296C2.02162 61.3132 2.56521 61.8978 3.21 61.8773L60.8206 61.8778C61.4348 61.8978 61.9784 61.3132 62 60.5613V60.5004ZM0 60.0009V60.5613C0.0545426 62.5143 1.48718 64.055 3.24062 63.998L60.79 63.9985C62.5128 64.055 63.9455 62.5143 64 60.5929V30.0606C64 30.0477 63.9998 30.0349 63.9994 30.0221C64.0091 29.747 63.909 29.4688 63.6999 29.2609L59 24.5883V3.13146C58.9768 2.25588 58.6166 1.45128 57.9987 0.868972C57.3808 0.286662 56.5563 -0.0253132 55.7077 0.00213083L8.26 0.00160828C7.44371 -0.0253132 6.61917 0.286662 6.00129 0.868972C5.38341 1.45128 5.02318 2.25588 5 3.10458V24.5883L0.300072 29.2609C0.0909789 29.4688 -0.00907321 29.747 0.000645407 30.0221C0.000216351 30.0349 0 30.0477 0 30.0606V60.0007V60.0009ZM46 19.5C46 27.4999 39.7406 34 32 34C24.2594 34 18 27.4999 18 19.5C18 11.5001 24.2594 5 32 5C39.7406 5 46 11.5001 46 19.5ZM20 19.5C20 26.4118 25.3812 32 32 32C38.6188 32 44 26.4118 44 19.5C44 12.5882 38.6188 7 32 7C25.3812 7 20 12.5882 20 19.5ZM31.2 22.45L30 15.65V11C30.4742 10.3729 31.2138 10.0031 32 10C32.7843 10.0106 33.5209 10.3789 34 11V15.64L32.82 22.44C32.6982 22.7521 32.4046 22.9635 32.07 22.98C31.6953 23.0126 31.3429 22.7979 31.2 22.45ZM30 27.27V26.73C30 25.73 30.58 25 32 25C33.42 25 34 25.75 34 26.73V27.27C34 28.27 33.42 29 32 29C30.58 29 30 28.25 30 27.27Z" fill="url(#paint0_linear_5147_112026)"/>
<defs>
<linearGradient id="paint0_linear_5147_112026" x1="32" y1="96" x2="96" y2="32" gradientUnits="userSpaceOnUse">
<stop stop-color="#FF444F"/>
<stop offset="1" stop-color="#FF6444"/>
</linearGradient>
</defs>
</svg>

<svg width="64" height="64" fill="none" xmlns="http://www.w3.org/2000/svg"><path fill-rule="evenodd" clip-rule="evenodd" d="M5 32a1 1 0 00-.486 1.874l17.161 9.533c-1.754 1.286-3.717 2.731-5.864 4.32l-.303.223A3186.16 3186.16 0 002 58.003V30.412l3-2.983V32zm2 .967l16.454 9.14c2.742-1.998 4.852-3.51 6.216-4.448 1.438-.876 3.222-.876 4.707.03 1.337.92 3.434 2.424 6.17 4.418L57 32.967V3.158a1.19 1.19 0 00-1.26-1.156L8.228 2A1.19 1.19 0 007 3.131v29.836zM59 32a1 1 0 01.486 1.874l-17.161 9.533c1.753 1.285 3.716 2.73 5.864 4.32l.303.223A3181.878 3181.878 0 0162 58.002v-27.59l-3-2.983V32zm3 28.5l-.89-.666a3812.478 3812.478 0 00-13.808-10.276L47 49.334c-6.555-4.847-11.387-8.367-13.71-9.967-.8-.487-1.78-.487-2.533-.03-2.37 1.63-7.202 5.15-13.757 9.997l-.302.224A3174.217 3174.217 0 002.89 59.834l-.89.667v.029c.022.783.565 1.368 1.21 1.347h57.61c.615.02 1.158-.564 1.18-1.316v-.06zM0 60v.561c.055 1.953 1.487 3.494 3.24 3.437h57.55c1.723.057 3.156-1.484 3.21-3.405V30.06v-.039a1.02 1.02 0 00-.3-.761L59 24.588V3.131a3.19 3.19 0 00-3.292-3.13H8.26A3.192 3.192 0 005 3.105v21.484L.3 29.261a1.02 1.02 0 00-.3.761V60.001zm46-40.5c0 8-6.26 14.5-14 14.5s-14-6.5-14-14.5S24.26 5 32 5s14 6.5 14 14.5zm-26 0C20 26.412 25.381 32 32 32s12-5.588 12-12.5S38.619 7 32 7s-12 5.588-12 12.5zm11.2 2.95l-1.2-6.8V11a2.52 2.52 0 012-1 2.57 2.57 0 012 1v4.64l-1.18 6.8a.85.85 0 01-.75.54.86.86 0 01-.87-.53zM30 27.27v-.54c0-1 .58-1.73 2-1.73s2 .75 2 1.73v.54c0 1-.58 1.73-2 1.73s-2-.75-2-1.73z" fill="url(#paint0_linear_5147_112026)"/><defs><linearGradient id="paint0_linear_5147_112026" x1="32" y1="96" x2="96" y2="32" gradientUnits="userSpaceOnUse"><stop stop-color="#FF444F"/><stop offset="1" stop-color="#FF6444"/></linearGradient></defs></svg>
